icons/settings-outlined.svg

<svg width="24" height="24" viewBox="0 0 24 24" fill="none" stroke="currentColor" stroke-width="2" stroke-linecap="round" stroke-linejoin="round" xmlns="http://www.w3.org/2000/svg">
  <g id="SettingsOutlined">
  <path id="Union" fill-rule="evenodd" clip-rule="evenodd" d="M10.6011 4.17279C10.6555 4.00945 10.8084 3.89928 10.9806 3.89928H13.0193C13.1914 3.89928 13.3443 4.00945 13.3987 4.17279L13.9099 5.70623C14.0441 6.1088 14.3327 6.44158 14.7122 6.63135L15.7114 7.13093C16.0909 7.3207 16.5303 7.35192 16.9329 7.21773L18.3273 6.75293C18.5162 6.68998 18.7226 6.77547 18.8116 6.95351L19.8023 8.93494C19.8867 9.10364 19.8417 9.30835 19.6944 9.42618L18.5258 10.361C18.1463 10.6647 17.9254 11.1244 17.9254 11.6104V12.3893C17.9254 12.8753 18.1463 13.335 18.5258 13.6387L19.6944 14.5735C19.8417 14.6914 19.8867 14.8961 19.8023 15.0648L18.8116 17.0462C18.7226 17.2242 18.5162 17.3097 18.3273 17.2468L17.037 16.8167C16.5389 16.6507 15.9911 16.7396 15.571 17.0546L14.4744 17.877C14.2397 18.0531 14.0578 18.2904 13.9489 18.5628L13.4344 19.849C13.3736 20.0009 13.2266 20.1004 13.063 20.1004H10.9368C10.7733 20.1004 10.6262 20.0009 10.5654 19.849L10.051 18.5628C9.94199 18.2904 9.76017 18.0531 9.52541 17.877L8.42879 17.0546C8.00877 16.7396 7.46092 16.6507 6.96283 16.8167L5.67251 17.2468C5.48366 17.3097 5.27727 17.2242 5.18825 17.0462L4.25013 15.17C4.15666 14.983 4.22288 14.7556 4.4021 14.6481L5.29768 14.1107C5.77961 13.8216 6.07449 13.3008 6.07449 12.7388V11.6104C6.07449 11.1244 5.85354 10.6647 5.474 10.361L4.30543 9.42618C4.15814 9.30835 4.11318 9.10365 4.19753 8.93494L5.18825 6.95351C5.27727 6.77547 5.48366 6.68998 5.67251 6.75293L7.06694 7.21773C7.46951 7.35192 7.9089 7.3207 8.28844 7.13093L9.28759 6.63135C9.66714 6.44158 9.95575 6.1088 10.0899 5.70623L10.6011 4.17279ZM10.9806 2.69928C10.2919 2.69928 9.68045 3.13997 9.46267 3.79331L8.95152 5.32676C8.91797 5.4274 8.84582 5.5106 8.75093 5.55804L7.75179 6.05761C7.6569 6.10506 7.54705 6.11286 7.44641 6.07931L6.05198 5.61451C5.2966 5.36271 4.47102 5.70468 4.11493 6.41686L3.12422 8.39829C2.78682 9.0731 2.96666 9.89191 3.55579 10.3632L4.72436 11.2981C4.81925 11.374 4.87449 11.4889 4.87449 11.6104V12.7388C4.87449 12.8793 4.80077 13.0095 4.68028 13.0818L3.78471 13.6191C3.0678 14.0492 2.80292 14.9588 3.17682 15.7066L4.11494 17.5829C4.47102 18.295 5.2966 18.637 6.05198 18.3852L7.3423 17.9551C7.46682 17.9136 7.60379 17.9358 7.70879 18.0146L8.80541 18.837C8.8641 18.8811 8.90956 18.9404 8.9368 19.0085L9.45127 20.2947C9.69426 20.9021 10.2826 21.3004 10.9368 21.3004H13.063C13.7172 21.3004 14.3056 20.9021 14.5486 20.2947L15.063 19.0085C15.0903 18.9404 15.1357 18.8811 15.1944 18.837L16.291 18.0146C16.3961 17.9358 16.533 17.9136 16.6575 17.9551L17.9479 18.3852C18.7032 18.637 19.5288 18.295 19.8849 17.5829L20.8756 15.6014C21.213 14.9266 21.0332 14.1078 20.444 13.6365L19.2755 12.7016C19.1806 12.6257 19.1254 12.5108 19.1254 12.3893V11.6104C19.1254 11.4889 19.1806 11.374 19.2755 11.2981L20.444 10.3632C21.0332 9.89191 21.213 9.0731 20.8756 8.39829L19.8849 6.41686C19.5288 5.70468 18.7032 5.36271 17.9479 5.61451L16.5534 6.07931C16.4528 6.11286 16.3429 6.10506 16.2481 6.05761L15.2489 5.55804C15.154 5.5106 15.0819 5.4274 15.0483 5.32676L14.5372 3.79332C14.3194 3.13997 13.708 2.69928 13.0193 2.69928H10.9806ZM9.98975 11.9999C9.98975 10.8897 10.8897 9.98968 11.9999 9.98968C13.1101 9.98968 14.0101 10.8897 14.0101 11.9999C14.0101 13.11 13.1101 14.01 11.9999 14.01C10.8897 14.01 9.98975 13.11 9.98975 11.9999ZM11.9999 8.78968C10.227 8.78968 8.78975 10.2269 8.78975 11.9999C8.78975 13.7728 10.227 15.21 11.9999 15.21C13.7728 15.21 15.2101 13.7728 15.2101 11.9999C15.2101 10.2269 13.7728 8.78968 11.9999 8.78968Z" fill="currentColor" />
  </g>
  </svg>

<svg
  xmlns="http://www.w3.org/2000/svg"
  width="24"
  height="24"
  viewBox="0 0 24 24"
  fill="none"
  stroke="currentColor"
  stroke-width="2"
  stroke-linecap="round"
  stroke-linejoin="round"
>
  <path
    fill-rule="evenodd"
    d="M10.601 4.173a.4.4 0 0 1 .38-.274h2.038a.4.4 0 0 1 .38.274l.51 1.533a1.6 1.6 0 0 0 .803.925l1 .5a1.6 1.6 0 0 0 1.22.087l1.395-.465a.4.4 0 0 1 .485.2l.99 1.982a.4.4 0 0 1-.108.491l-1.168.935a1.6 1.6 0 0 0-.6 1.25v.778c0 .486.22.946.6 1.25l1.168.934a.4.4 0 0 1 .108.492l-.99 1.981a.4.4 0 0 1-.485.2l-1.29-.43a1.6 1.6 0 0 0-1.466.239l-1.097.822a1.6 1.6 0 0 0-.525.686l-.515 1.286a.4.4 0 0 1-.371.251h-2.126a.4.4 0 0 1-.372-.251l-.514-1.286a1.6 1.6 0 0 0-.526-.686l-1.096-.822a1.6 1.6 0 0 0-1.466-.238l-1.29.43a.4.4 0 0 1-.485-.2L4.25 15.17a.4.4 0 0 1 .152-.522l.896-.537a1.6 1.6 0 0 0 .776-1.372V11.61a1.6 1.6 0 0 0-.6-1.249l-1.169-.935a.4.4 0 0 1-.107-.491l.99-1.981a.4.4 0 0 1 .485-.201l1.394.465a1.6 1.6 0 0 0 1.221-.087l1-.5a1.6 1.6 0 0 0 .802-.925zm.38-1.474a1.6 1.6 0 0 0-1.518 1.094l-.511 1.534a.4.4 0 0 1-.201.231l-1 .5a.4.4 0 0 1-.305.021l-1.394-.464a1.6 1.6 0 0 0-1.937.802l-.99 1.981a1.6 1.6 0 0 0 .43 1.965l1.17.935a.4.4 0 0 1 .15.312v1.129a.4.4 0 0 1-.195.343l-.895.537a1.6 1.6 0 0 0-.608 2.088l.938 1.876a1.6 1.6 0 0 0 1.937.802l1.29-.43a.4.4 0 0 1 .367.06l1.096.822a.4.4 0 0 1 .132.172l.514 1.286a1.6 1.6 0 0 0 1.486 1.005h2.126a1.6 1.6 0 0 0 1.486-1.005l.514-1.287a.4.4 0 0 1 .131-.171l1.097-.822a.4.4 0 0 1 .366-.06l1.29.43a1.6 1.6 0 0 0 1.938-.802l.99-1.982a1.6 1.6 0 0 0-.431-1.965l-1.168-.934a.4.4 0 0 1-.15-.313v-.779a.4.4 0 0 1 .15-.312l1.168-.935a1.6 1.6 0 0 0 .432-1.965l-.991-1.981a1.6 1.6 0 0 0-1.937-.802l-1.395.464a.4.4 0 0 1-.305-.021l-1-.5a.4.4 0 0 1-.2-.231l-.51-1.534A1.6 1.6 0 0 0 13.018 2.7zM9.99 12a2.01 2.01 0 1 1 4.02 0 2.01 2.01 0 0 1-4.02 0M12 8.79a3.21 3.21 0 1 0 0 6.421 3.21 3.21 0 0 0 0-6.42"
    clip-rule="evenodd"
  />
</svg>
